_includes/icons/ios-mastercard.svg

<svg fill="#666" height="50" viewBox="0 0 50 50" width="50" xmlns="http://www.w3.org/2000/svg"><path d="m5 7c-2.75 0-5 2.25-5 5v26c0 2.75 2.25 5 5 5h40c2.75 0 5-2.25 5-5v-26c0-2.75-2.25-5-5-5zm0 2h40c1.667969 0 3 1.332031 3 3v26c0 1.667969-1.332031 3-3 3h-40c-1.667969 0-3-1.332031-3-3v-26c0-1.667969 1.332031-3 3-3zm12 4c-6.617187 0-12 5.382813-12 12 0 6.617188 5.382813 12 12 12 3.078125 0 5.875-1.183594 8-3.09375 2.125 1.910156 4.925781 3.09375 8 3.09375 6.617188 0 12-5.382812 12-12 0-6.617187-5.382812-12-12-12-3.074219 0-5.875 1.183594-8 3.09375-2.125-1.910156-4.921875-3.09375-8-3.09375zm0 2c.785156 0 1.550781.109375 2.28125.28125-.179687.179688-.28125.441406-.28125.71875 0 .550781.449219 1 1 1s1-.449219 1-1c0-.058594-.023437-.101562-.03125-.15625 1.089844.476563 2.089844 1.125 2.9375 1.9375.078125.394531.386719.703125.78125.78125.621094.746094 1.117188 1.589844 1.5 2.5-.066406-.015625-.117187-.0625-.1875-.0625-.550781 0-1 .449219-1 1s.449219 1 1 1c.277344 0 .539063-.101562.71875-.28125.167969.738281.28125 1.492188.28125 2.28125 0 .789063-.109375 1.542969-.28125 2.28125-.179687-.179687-.441406-.28125-.71875-.28125-.550781 0-1 .449219-1 1s.449219 1 1 1c.066406 0 .125-.019531.1875-.03125-.390625.902344-.910156 1.726563-1.53125 2.46875-.382812.089844-.675781.394531-.75.78125-.859375.824219-1.855469 1.492188-2.96875 1.96875.015625-.066406.0625-.117187.0625-.1875 0-.550781-.449219-1-1-1s-1 .449219-1 1c0 .292969.113281.566406.3125.75-.742187.175781-1.519531.25-2.3125.25s-1.570312-.074219-2.3125-.25c.199219-.183594.3125-.457031.3125-.75 0-.550781-.449219-1-1-1s-1 .449219-1 1c0 .070313.046875.121094.0625.1875-2.363281-1.007812-4.242187-2.886719-5.25-5.25.066406.015625.117188.0625.1875.0625.550781 0 1-.449219 1-1s-.449219-1-1-1c-.292969 0-.566406.113281-.75.3125-.175781-.742187-.25-1.519531-.25-2.3125s.074219-1.570312.25-2.3125c.183594.199219.457031.3125.75.3125.550781 0 1-.449219 1-1s-.449219-1-1-1c-.070312 0-.121094.046875-.1875.0625 1.007813-2.363281 2.886719-4.242187 5.25-5.25-.015625.066406-.0625.117188-.0625.1875 0 .550781.449219 1 1 1s1-.449219 1-1c0-.292969-.113281-.566406-.3125-.75.742188-.175781 1.519531-.25 2.3125-.25zm16 0c5.535156 0 10 4.464844 10 10s-4.464844 10-10 10c-2.554687 0-4.890625-.933594-6.65625-2.5 1.652344-2.058594 2.65625-4.664062 2.65625-7.5 0-2.835937-1.003906-5.441406-2.65625-7.5 1.765625-1.566406 4.101563-2.5 6.65625-2.5zm-22 3c-.550781 0-1 .449219-1 1s.449219 1 1 1 1-.449219 1-1-.449219-1-1-1zm6 0c-.550781 0-1 .449219-1 1s.449219 1 1 1 1-.449219 1-1-.449219-1-1-1zm6 0c-.550781 0-1 .449219-1 1s.449219 1 1 1 1-.449219 1-1-.449219-1-1-1zm-9 3c-.550781 0-1 .449219-1 1s.449219 1 1 1 1-.449219 1-1-.449219-1-1-1zm6 0c-.550781 0-1 .449219-1 1s.449219 1 1 1 1-.449219 1-1-.449219-1-1-1zm-9 3c-.550781 0-1 .449219-1 1s.449219 1 1 1 1-.449219 1-1-.449219-1-1-1zm6 0c-.550781 0-1 .449219-1 1s.449219 1 1 1 1-.449219 1-1-.449219-1-1-1zm6 0c-.550781 0-1 .449219-1 1s.449219 1 1 1 1-.449219 1-1-.449219-1-1-1zm-9 3c-.550781 0-1 .449219-1 1s.449219 1 1 1 1-.449219 1-1-.449219-1-1-1zm6 0c-.550781 0-1 .449219-1 1s.449219 1 1 1 1-.449219 1-1-.449219-1-1-1zm-9 3c-.550781 0-1 .449219-1 1s.449219 1 1 1 1-.449219 1-1-.449219-1-1-1zm6 0c-.550781 0-1 .449219-1 1s.449219 1 1 1 1-.449219 1-1-.449219-1-1-1zm6 0c-.550781 0-1 .449219-1 1s.449219 1 1 1 1-.449219 1-1-.449219-1-1-1z"/></svg>

<svg xmlns="http://www.w3.org/2000/svg" viewBox="0 0 50 50" width="50" height="50" fill="#666"><path d="M 5 7 C 2.25 7 0 9.25 0 12 L 0 38 C 0 40.75 2.25 43 5 43 L 45 43 C 47.75 43 50 40.75 50 38 L 50 12 C 50 9.25 47.75 7 45 7 Z M 5 9 L 45 9 C 46.667969 9 48 10.332031 48 12 L 48 38 C 48 39.667969 46.667969 41 45 41 L 5 41 C 3.332031 41 2 39.667969 2 38 L 2 12 C 2 10.332031 3.332031 9 5 9 Z M 17 13 C 10.382813 13 5 18.382813 5 25 C 5 31.617188 10.382813 37 17 37 C 20.078125 37 22.875 35.816406 25 33.90625 C 27.125 35.816406 29.925781 37 33 37 C 39.617188 37 45 31.617188 45 25 C 45 18.382813 39.617188 13 33 13 C 29.925781 13 27.125 14.183594 25 16.09375 C 22.875 14.183594 20.078125 13 17 13 Z M 17 15 C 17.785156 15 18.550781 15.109375 19.28125 15.28125 C 19.101563 15.460938 19 15.722656 19 16 C 19 16.550781 19.449219 17 20 17 C 20.550781 17 21 16.550781 21 16 C 21 15.941406 20.976563 15.898438 20.96875 15.84375 C 22.058594 16.320313 23.058594 16.96875 23.90625 17.78125 C 23.984375 18.175781 24.292969 18.484375 24.6875 18.5625 C 25.308594 19.308594 25.804688 20.152344 26.1875 21.0625 C 26.121094 21.046875 26.070313 21 26 21 C 25.449219 21 25 21.449219 25 22 C 25 22.550781 25.449219 23 26 23 C 26.277344 23 26.539063 22.898438 26.71875 22.71875 C 26.886719 23.457031 27 24.210938 27 25 C 27 25.789063 26.890625 26.542969 26.71875 27.28125 C 26.539063 27.101563 26.277344 27 26 27 C 25.449219 27 25 27.449219 25 28 C 25 28.550781 25.449219 29 26 29 C 26.066406 29 26.125 28.980469 26.1875 28.96875 C 25.796875 29.871094 25.277344 30.695313 24.65625 31.4375 C 24.273438 31.527344 23.980469 31.832031 23.90625 32.21875 C 23.046875 33.042969 22.050781 33.710938 20.9375 34.1875 C 20.953125 34.121094 21 34.070313 21 34 C 21 33.449219 20.550781 33 20 33 C 19.449219 33 19 33.449219 19 34 C 19 34.292969 19.113281 34.566406 19.3125 34.75 C 18.570313 34.925781 17.792969 35 17 35 C 16.207031 35 15.429688 34.925781 14.6875 34.75 C 14.886719 34.566406 15 34.292969 15 34 C 15 33.449219 14.550781 33 14 33 C 13.449219 33 13 33.449219 13 34 C 13 34.070313 13.046875 34.121094 13.0625 34.1875 C 10.699219 33.179688 8.820313 31.300781 7.8125 28.9375 C 7.878906 28.953125 7.929688 29 8 29 C 8.550781 29 9 28.550781 9 28 C 9 27.449219 8.550781 27 8 27 C 7.707031 27 7.433594 27.113281 7.25 27.3125 C 7.074219 26.570313 7 25.792969 7 25 C 7 24.207031 7.074219 23.429688 7.25 22.6875 C 7.433594 22.886719 7.707031 23 8 23 C 8.550781 23 9 22.550781 9 22 C 9 21.449219 8.550781 21 8 21 C 7.929688 21 7.878906 21.046875 7.8125 21.0625 C 8.820313 18.699219 10.699219 16.820313 13.0625 15.8125 C 13.046875 15.878906 13 15.929688 13 16 C 13 16.550781 13.449219 17 14 17 C 14.550781 17 15 16.550781 15 16 C 15 15.707031 14.886719 15.433594 14.6875 15.25 C 15.429688 15.074219 16.207031 15 17 15 Z M 33 15 C 38.535156 15 43 19.464844 43 25 C 43 30.535156 38.535156 35 33 35 C 30.445313 35 28.109375 34.066406 26.34375 32.5 C 27.996094 30.441406 29 27.835938 29 25 C 29 22.164063 27.996094 19.558594 26.34375 17.5 C 28.109375 15.933594 30.445313 15 33 15 Z M 11 18 C 10.449219 18 10 18.449219 10 19 C 10 19.550781 10.449219 20 11 20 C 11.550781 20 12 19.550781 12 19 C 12 18.449219 11.550781 18 11 18 Z M 17 18 C 16.449219 18 16 18.449219 16 19 C 16 19.550781 16.449219 20 17 20 C 17.550781 20 18 19.550781 18 19 C 18 18.449219 17.550781 18 17 18 Z M 23 18 C 22.449219 18 22 18.449219 22 19 C 22 19.550781 22.449219 20 23 20 C 23.550781 20 24 19.550781 24 19 C 24 18.449219 23.550781 18 23 18 Z M 14 21 C 13.449219 21 13 21.449219 13 22 C 13 22.550781 13.449219 23 14 23 C 14.550781 23 15 22.550781 15 22 C 15 21.449219 14.550781 21 14 21 Z M 20 21 C 19.449219 21 19 21.449219 19 22 C 19 22.550781 19.449219 23 20 23 C 20.550781 23 21 22.550781 21 22 C 21 21.449219 20.550781 21 20 21 Z M 11 24 C 10.449219 24 10 24.449219 10 25 C 10 25.550781 10.449219 26 11 26 C 11.550781 26 12 25.550781 12 25 C 12 24.449219 11.550781 24 11 24 Z M 17 24 C 16.449219 24 16 24.449219 16 25 C 16 25.550781 16.449219 26 17 26 C 17.550781 26 18 25.550781 18 25 C 18 24.449219 17.550781 24 17 24 Z M 23 24 C 22.449219 24 22 24.449219 22 25 C 22 25.550781 22.449219 26 23 26 C 23.550781 26 24 25.550781 24 25 C 24 24.449219 23.550781 24 23 24 Z M 14 27 C 13.449219 27 13 27.449219 13 28 C 13 28.550781 13.449219 29 14 29 C 14.550781 29 15 28.550781 15 28 C 15 27.449219 14.550781 27 14 27 Z M 20 27 C 19.449219 27 19 27.449219 19 28 C 19 28.550781 19.449219 29 20 29 C 20.550781 29 21 28.550781 21 28 C 21 27.449219 20.550781 27 20 27 Z M 11 30 C 10.449219 30 10 30.449219 10 31 C 10 31.550781 10.449219 32 11 32 C 11.550781 32 12 31.550781 12 31 C 12 30.449219 11.550781 30 11 30 Z M 17 30 C 16.449219 30 16 30.449219 16 31 C 16 31.550781 16.449219 32 17 32 C 17.550781 32 18 31.550781 18 31 C 18 30.449219 17.550781 30 17 30 Z M 23 30 C 22.449219 30 22 30.449219 22 31 C 22 31.550781 22.449219 32 23 32 C 23.550781 32 24 31.550781 24 31 C 24 30.449219 23.550781 30 23 30 Z"/></svg>
